svg/u1f3ae.svg

<svg viewBox="0 0 128 128" xmlns="http://www.w3.org/2000/svg">
  <path d="M19.64,35.33c0.09-0.26-0.09-4.82,2.45-8.41s5.87-4.12,8.33-4.56c2.98-0.53,10.17-1.4,11.31,1.05 c1.14,2.45,0.26,3.77,2.1,4.47s-1.49,4.82-1.49,4.82L19.64,35.33z" fill="#464C4F"/>
  <path d="M107.89,35.24c0,0,0.72-4.43-1.81-7.42c-3.8-4.51-9.75-5.97-15.38-5.97c-1.81,0-3.98,0.35-4.68,2.51 c-0.4,1.25-0.68,2.77-1.56,2.94C83.59,27.48,102.19,33.23,107.89,35.24z" fill="#464C4F"/>
  <path d="M39.04,81.29c-2.99,2.32-6.96,18.32-13.17,22.55s-20.28,1.97-21.34-6.66 c-0.93-7.61,0.76-23.61,5-39.96s7.5-24.45,17.41-27.1c7.95-2.13,23.53-3.63,38.66-3.48c15.14,0.15,28.39,0.15,36.72,3.33 c7.47,2.85,12.56,10.6,16.05,25.73c3.48,15.14,6.17,33.34,5.75,39.36c-0.61,8.78-13.02,14.38-22.25,7.57 c-7.35-5.42-8.78-19.22-12.56-21.19S41.76,79.17,39.04,81.29z" fill="#5E6268"/>
  <path d="M93.25,77.17c-0.72,0.9,0.94,2.24,2.12,5.17c1.18,2.93,4.22,12.63,7.17,15.34 c3.68,3.37,6.55,2.74,7.11,1.68s-2.62-3.8-6.36-9.91C99.55,83.34,94.75,75.3,93.25,77.17z" fill="#9E9E9E"/>
  <path d="M10.52,74.68c-1.11,0.2-4.05,14.96-1.87,21.2c1.82,5.2,8.79,5.49,11.41,4.74 c5.22-1.49,6.86-6.55,5.67-7.11c-1.18-0.56-5.32,3.4-9.23,1.56c-4.36-2.06-4.3-7.86-4.86-13.72C11.14,76.07,11.58,74.49,10.52,74.68 z" fill="#9E9E9E"/>
  <path d="M38.01,41.95c-0.41,0-4.01-0.02-4.01-0.02l0.02-4.35c0,0,0.08-3.51-3.68-3.43 c-3.37,0.07-3.3,2.88-3.3,3.43s-0.02,4.32-0.02,4.32s-3.82-0.04-4.53-0.02s-3.37,0.06-3.37,3.49c0,3.24,2.75,3.47,3.37,3.49 s4.51,0.02,4.51,0.02s-0.03,3.63-0.02,4.22s0.12,3.37,3.49,3.37c3.68,0,3.49-3.37,3.49-3.37l0.02-4.19c0,0,3.44,0.03,4.04,0.02 c0.86-0.02,3.39-0.25,3.43-3.68C41.48,41.86,38.43,41.95,38.01,41.95z" fill="#9E9E9E"/>
  <circle cx="48.4" cy="62.42" r="8.54" fill="#AFAFAF"/>
  <circle cx="77.75" cy="62.55" r="8.54" fill="#AFAFAF"/>
  <circle cx="48.39" cy="62.21" r="5.71" fill="#C8C8C8"/>
  <circle cx="77.75" cy="62.4" r="5.71" fill="#C8C8C8"/>
  <circle cx="85.82" cy="45.67" r="4.6" fill="#2086FA"/>
  <circle cx="94.94" cy="54.48" r="4.6" fill="#06AC48"/>
  <circle cx="104.12" cy="46.4" r="4.6" fill="#F72E26"/>
  <circle cx="95.02" cy="37.01" r="4.6" fill="#FDB700"/>
</svg>

<svg viewBox="0 0 128 128" xmlns="http://www.w3.org/2000/svg">
  <defs/>
  <path d="M19.64,35.33 C19.73,35.07 19.55,30.51 22.09,26.92 C24.63,23.33 27.96,22.8 30.42,22.36 C33.4,21.83 40.59,20.96 41.73,23.41 C42.87,25.86 41.99,27.18 43.83,27.88 C45.67,28.58 42.34,32.7 42.34,32.7 L19.64,35.33 Z" fill="#464C4F"/>
  <path d="M107.89,35.24 C107.89,35.24 108.61,30.81 106.08,27.82 C102.28,23.31 96.33,21.85 90.7,21.85 C88.89,21.85 86.72,22.2 86.02,24.36 C85.62,25.61 85.34,27.13 84.46,27.3 C83.59,27.48 102.19,33.23 107.89,35.24 Z" fill="#464C4F"/>
  <path d="M39.04,81.29 C36.05,83.61 32.08,99.61 25.87,103.84 C19.66,108.07 5.59,105.81 4.53,97.18 C3.6,89.57 5.29,73.57 9.53,57.22 C13.77,40.87 17.03,32.77 26.94,30.12 C34.89,27.99 50.47,26.49 65.6,26.64 C80.74,26.79 93.99,26.79 102.32,29.97 C109.79,32.82 114.88,40.57 118.37,55.7 C121.85,70.84 124.54,89.04 124.12,95.06 C123.51,103.84 111.1,109.44 101.87,102.63 C94.52,97.21 93.09,83.41 89.31,81.44 C85.53,79.47 41.76,79.17 39.04,81.29 Z" fill="#5E6268"/>
  <path d="M93.25,77.17 C92.53,78.07 94.19,79.41 95.37,82.34 C96.55,85.27 99.59,94.97 102.54,97.68 C106.22,101.05 109.09,100.42 109.65,99.36 C110.21,98.3 107.03,95.56 103.29,89.45 C99.55,83.34 94.75,75.3 93.25,77.17 Z" fill="#9E9E9E"/>
  <path d="M10.52,74.68 C9.41,74.88 6.47,89.64 8.65,95.88 C10.47,101.08 17.44,101.37 20.06,100.62 C25.28,99.13 26.92,94.07 25.73,93.51 C24.55,92.95 20.41,96.91 16.5,95.07 C12.14,93.01 12.2,87.21 11.64,81.35 C11.14,76.07 11.58,74.49 10.52,74.68 Z" fill="#9E9E9E"/>
  <path d="M38.01,41.95 C37.6,41.95 34,41.93 34,41.93 L34.02,37.58 C34.02,37.58 34.1,34.07 30.34,34.15 C26.97,34.22 27.04,37.03 27.04,37.58 C27.04,38.13 27.02,41.9 27.02,41.9 C27.02,41.9 23.2,41.86 22.49,41.88 C21.78,41.9 19.12,41.94 19.12,45.37 C19.12,48.61 21.87,48.84 22.49,48.86 C23.11,48.88 27,48.88 27,48.88 C27,48.88 26.97,52.51 26.98,53.1 C26.99,53.69 27.1,56.47 30.47,56.47 C34.15,56.47 33.96,53.1 33.96,53.1 L33.98,48.91 C33.98,48.91 37.42,48.94 38.02,48.93 C38.88,48.91 41.41,48.68 41.45,45.25 C41.48,41.86 38.43,41.95 38.01,41.95 Z" fill="#9E9E9E"/>
  <path d="M56.94,62.42 A8.54 8.54 0 1 1 39.86,62.42 A8.54 8.54 0 1 1 56.94,62.42 Z" fill="#AFAFAF"/>
  <path d="M86.29,62.55 A8.54 8.54 0 1 1 69.21,62.55 A8.54 8.54 0 1 1 86.29,62.55 Z" fill="#AFAFAF"/>
  <path d="M54.1,62.21 A5.71 5.71 0 1 1 42.68,62.21 A5.71 5.71 0 1 1 54.1,62.21 Z" fill="#C8C8C8"/>
  <path d="M83.46,62.4 A5.71 5.71 0 1 1 72.04,62.4 A5.71 5.71 0 1 1 83.46,62.4 Z" fill="#C8C8C8"/>
  <path d="M90.42,45.67 A4.6 4.6 0 1 1 81.22,45.67 A4.6 4.6 0 1 1 90.42,45.67 Z" fill="#2086FA"/>
  <path d="M99.54,54.48 A4.6 4.6 0 1 1 90.34,54.48 A4.6 4.6 0 1 1 99.54,54.48 Z" fill="#06AC48"/>
  <path d="M108.72,46.4 A4.6 4.6 0 1 1 99.52,46.4 A4.6 4.6 0 1 1 108.72,46.4 Z" fill="#F72E26"/>
  <path d="M99.62,37.01 A4.6 4.6 0 1 1 90.42,37.01 A4.6 4.6 0 1 1 99.62,37.01 Z" fill="#FDB700"/>
</svg>
